app/assets/images/heroicons/micro/code-bracket.svg

<svg width="16" height="16" viewBox="0 0 16 16" fill="none" xmlns="http://www.w3.org/2000/svg">
<path fill-rule="evenodd" clip-rule="evenodd" d="M4.78033 4.96977C5.07322 5.26266 5.07322 5.73753 4.78033 6.03043L2.81066 8.0001L4.78033 9.96977C5.07322 10.2627 5.07322 10.7375 4.78033 11.0304C4.48744 11.3233 4.01256 11.3233 3.71967 11.0304L1.21967 8.53043C0.926777 8.23753 0.926777 7.76266 1.21967 7.46977L3.71967 4.96977C4.01256 4.67687 4.48744 4.67687 4.78033 4.96977Z" fill="black"/>
<path fill-rule="evenodd" clip-rule="evenodd" d="M11.2197 4.96977C10.9268 5.26266 10.9268 5.73753 11.2197 6.03043L13.1893 8.0001L11.2197 9.96977C10.9268 10.2627 10.9268 10.7375 11.2197 11.0304C11.5126 11.3233 11.9874 11.3233 12.2803 11.0304L14.7803 8.53043C15.0732 8.23753 15.0732 7.76266 14.7803 7.46977L12.2803 4.96977C11.9874 4.67687 11.5126 4.67687 11.2197 4.96977Z" fill="black"/>
<path fill-rule="evenodd" clip-rule="evenodd" d="M8.85607 2.00763C9.26612 2.06621 9.55104 2.44611 9.49246 2.85616L7.99246 13.3562C7.93388 13.7662 7.55398 14.0511 7.14393 13.9926C6.73388 13.934 6.44896 13.5541 6.50754 13.144L8.00754 2.64403C8.06612 2.23398 8.44602 1.94905 8.85607 2.00763Z" fill="black"/>
</svg>

<svg xmlns="http://www.w3.org/2000/svg" viewBox="0 0 16 16" fill="currentColor" aria-hidden="true" data-slot="icon">
  <path fill-rule="evenodd" d="M4.78 4.97a.75.75 0 0 1 0 1.06L2.81 8l1.97 1.97a.75.75 0 1 1-1.06 1.06l-2.5-2.5a.75.75 0 0 1 0-1.06l2.5-2.5a.75.75 0 0 1 1.06 0ZM11.22 4.97a.75.75 0 0 0 0 1.06L13.19 8l-1.97 1.97a.75.75 0 1 0 1.06 1.06l2.5-2.5a.75.75 0 0 0 0-1.06l-2.5-2.5a.75.75 0 0 0-1.06 0ZM8.856 2.008a.75.75 0 0 1 .636.848l-1.5 10.5a.75.75 0 0 1-1.484-.212l1.5-10.5a.75.75 0 0 1 .848-.636Z" clip-rule="evenodd"/>
</svg>
